X:1
T:ROND DE SAUTRON Sous les lauriers blancs
L:1/8
Q:1/4=80
M:4/4
I:linebreak $
K:G
V:1 treble 
V:1
 D/DGG3/2 A/AFGB/ | B/BGA3/2 D/DGG3/2 | A/AFGB/ B/BGA3/2 | D/G/G/AABG/G/AAB |$ G/G/AAB G/G/A A | %5
 B2 D2 G2 F/G/A | GFED D2 G2 | F/G/AGF G2 D2 | G2 F/G/A GFED | D2 G2 F/G/AGF | G2 | %11
